findly-builder/apps/searchassist/src/assets/icons/refresh-primary.svg

<svg width="13" height="14" viewBox="0 0 13 14" fill="none" xmlns="http://www.w3.org/2000/svg">
<path d="M5.75843 0.118192C5.55458 -0.0499898 5.2524 -0.0386747 5.06178 0.152069L5.02814 0.189088C4.85996 0.392942 4.87127 0.695125 5.06202 0.885744L6.02987 1.85299C2.69603 1.87843 0 4.58842 0 7.9264C0 11.2802 2.7216 14 6.07722 14C9.43284 14 12.1544 11.2802 12.1544 7.9264C12.1544 7.63989 11.9222 7.40762 11.6356 7.40762C11.3491 7.40762 11.1169 7.63989 11.1169 7.9264C11.1169 10.707 8.85996 12.9624 6.07722 12.9624C3.29448 12.9624 1.03757 10.707 1.03757 7.9264C1.03757 5.16263 3.26727 2.91768 6.02679 2.89063L5.06202 3.85503L5.02836 3.89203C4.86004 4.09578 4.87116 4.39797 5.06178 4.58871C5.26431 4.79138 5.59279 4.79148 5.79545 4.58895L7.64826 2.73735L7.68194 2.70033C7.85032 2.49649 7.8391 2.19414 7.64826 2.00343L5.79545 0.15183L5.75843 0.118192Z" fill="#0D6EFD"/>
</svg>

<svg width="13" height="14" fill="none" xmlns="http://www.w3.org/2000/svg"><path d="M5.758.118a.519.519 0 0 0-.696.034L5.028.19a.519.519 0 0 0 .034.697l.968.967A6.076 6.076 0 0 0 0 7.926 6.076 6.076 0 0 0 6.077 14a6.076 6.076 0 0 0 6.077-6.074.519.519 0 1 0-1.037 0 5.039 5.039 0 0 1-5.04 5.036 5.039 5.039 0 0 1-5.04-5.036 5.039 5.039 0 0 1 4.99-5.035l-.965.964-.034.037a.519.519 0 0 0 .767.697l1.853-1.852.034-.037a.519.519 0 0 0-.034-.697L5.795.152 5.758.118Z" fill="#0D6EFD"/></svg>
